X:7881
T:Emma
C:anon.
O:Finland
R:Vals, waltz
Z:Transcribed by Frank Nordberg - http://www.musicaviva.com
F:http://abc.musicaviva.com/tunes/finland/emma/emma.abc
M:3/4
L:1/4
K:Dm
D/F/|:"Dm"A2A|"Dm"FDF|"Dm"A2A|"Dm"FDD/F/|
"A7"E2E/F/|"A7"GFE|[1"Dm"D3/2E/F/G/|"Dm"A2D/F/:|[2"Dm"D3|"n.c."DFA||
|:"Gm"d2d|"Gm"dcB|"Dm"A2A|"Dm"AGF|"A7"E2E/F/|"A7"GFE|[1"Dm"D3|"n.c."DFA:|[2"Dm"D3-|"Dm"D2|]
W:
W:
W:  From Musica Viva - http://www.musicaviva.com
W:  the Internet center for free sheet music downloads.
